src/images/icons/cards.svg

<?xml version="1.0" encoding="utf-8"?>
<!-- Generated by IcoMoon.io -->
<!DOCTYPE svg PUBLIC "-//W3C//DTD SVG 1.1//EN" "http://www.w3.org/Graphics/SVG/1.1/DTD/svg11.dtd">
<svg version="1.1" xmlns="http://www.w3.org/2000/svg" xmlns:xlink="http://www.w3.org/1999/xlink" width="512" height="512" viewBox="0 0 512 512">
<path d="M465.052 0h-418.104c-25.822 0-46.948 21.127-46.948 46.948v130.798c0 25.821 21.127 46.948 46.948 46.948h418.104c25.822 0 46.948-21.126 46.948-46.948v-130.798c0-25.822-21.127-46.948-46.948-46.948zM448 160.694h-384v-96h384v96z"></path>
<path d="M465.052 287.307h-418.104c-25.822 0-46.948 21.127-46.948 46.948v130.798c0 25.822 21.127 46.948 46.948 46.948h418.104c25.822 0 46.948-21.127 46.948-46.948v-130.798c0-25.822-21.127-46.948-46.948-46.948zM448 448h-384v-96h384v96z"></path>
</svg>

<?xml version="1.0" encoding="utf-8"?>
<!-- Generator: Adobe Illustrator 19.2.1, SVG Export Plug-In . SVG Version: 6.00 Build 0)  -->
<svg version="1.1" id="Layer_1" xmlns="http://www.w3.org/2000/svg" xmlns:xlink="http://www.w3.org/1999/xlink" x="0px" y="0px"
	 viewBox="0 0 512 512" style="enable-background:new 0 0 512 512;" xml:space="preserve">
<path class="lexicon-icon-body" fill="none" d="M465.1,0H46.9C21.1,0,0,21.1,0,46.9v130.8c0,25.8,21.1,46.9,46.9,46.9h418.1c25.8,0,46.9-21.1,46.9-46.9V46.9
	C512,21.1,490.9,0,465.1,0z"/>
<path class="lexicon-icon-body" fill="none" d="M465.1,287.3H46.9C21.1,287.3,0,308.4,0,334.3v130.8C0,490.9,21.1,512,46.9,512h418.1
	c25.8,0,46.9-21.1,46.9-46.9V334.3C512,308.4,490.9,287.3,465.1,287.3L465.1,287.3z"/>
<path class="lexicon-icon-outline" d="M465.1,0H46.9C21.1,0,0,21.1,0,46.9v130.8c0,25.8,21.1,46.9,46.9,46.9h418.1c25.8,0,46.9-21.1,46.9-46.9V46.9
	C512,21.1,490.9,0,465.1,0z M448,160.7H64v-96h384V160.7z"/>
<path class="lexicon-icon-outline" d="M465.1,287.3H46.9C21.1,287.3,0,308.4,0,334.3v130.8C0,490.9,21.1,512,46.9,512h418.1c25.8,0,46.9-21.1,46.9-46.9V334.3
	C512,308.4,490.9,287.3,465.1,287.3L465.1,287.3z M448,448H64v-96h384V448z"/>
</svg>
